resources/icons/cisco/ciscosecurity.svg

<?xml version="1.0" encoding="UTF-8"?>
<svg xmlns="http://www.w3.org/2000/svg" xmlns:xlink="http://www.w3.org/1999/xlink" width="218pt" height="200pt" viewBox="0 0 218 200" version="1.1">
<g id="surface1">
<path style=" stroke:none;fill-rule:nonzero;fill:rgb(3.137255%,48.235294%,73.333333%);fill-opacity:1;" d="M 2.859375 163.09375 L 181.53125 163.09375 L 181.53125 129.546875 L 2.859375 129.546875 L 2.859375 163.101562 Z M 2.859375 163.09375 "/>
<path style="fill:none;stroke-width:0.5;stroke-linecap:butt;stroke-linejoin:miter;stroke:rgb(100%,100%,100%);stroke-opacity:1;stroke-miterlimit:4;" d="M 0.629587 35.879766 L 39.970183 35.879766 L 39.970183 28.500312 L 0.629587 28.500312 L 0.629587 35.882344 Z M 27.920298 32.677734 L 37.840596 32.677734 M 27.920298 32.321953 L 37.840596 32.321953 " transform="matrix(4.541667,0,0,4.545455,0,0)"/>
<path style=" stroke:none;fill-rule:nonzero;fill:rgb(3.137255%,48.235294%,73.333333%);fill-opacity:1;" d="M 211.542969 131.273438 L 211.542969 101.199219 L 181.511719 129.675781 L 181.511719 163.09375 L 211.542969 131.273438 "/>
<path style="fill:none;stroke-width:0.5;stroke-linecap:butt;stroke-linejoin:miter;stroke:rgb(100%,100%,100%);stroke-opacity:1;stroke-miterlimit:4;" d="M 46.578268 28.880156 L 46.578268 22.262969 L 39.965883 28.527812 L 39.965883 35.882344 L 46.578268 28.879297 Z M 46.578268 28.880156 " transform="matrix(4.541667,0,0,4.545455,0,0)"/>
<path style=" stroke:none;fill-rule:nonzero;fill:rgb(3.137255%,48.235294%,73.333333%);fill-opacity:1;" d="M 149.800781 190.441406 L 149.800781 182.894531 L 166.035156 160.441406 L 166.035156 174.191406 L 149.800781 190.441406 "/>
<path style="fill:none;stroke-width:0.5;stroke-linecap:butt;stroke-linejoin:miter;stroke:rgb(100%,100%,100%);stroke-opacity:1;stroke-miterlimit:4;" d="M 32.983658 41.897109 L 32.983658 40.236797 L 36.5582 35.29625 L 36.5582 38.322969 Z M 32.983658 41.897109 " transform="matrix(4.541667,0,0,4.545455,0,0)"/>
<path style=" stroke:none;fill-rule:nonzero;fill:rgb(3.137255%,48.235294%,73.333333%);fill-opacity:1;" d="M 6.652344 190.441406 L 149.800781 190.441406 L 149.800781 183.003906 L 6.648438 183.003906 L 6.648438 190.441406 Z M 6.652344 190.441406 "/>
<path style="fill:none;stroke-width:0.5;stroke-linecap:butt;stroke-linejoin:miter;stroke:rgb(100%,100%,100%);stroke-opacity:1;stroke-miterlimit:4;" d="M 1.464736 41.897969 L 32.983658 41.897969 L 32.983658 40.261719 L 1.463876 40.261719 L 1.463876 41.897969 Z M 1.464736 41.897969 " transform="matrix(4.541667,0,0,4.545455,0,0)"/>
<path style=" stroke:none;fill-rule:nonzero;fill:rgb(3.137255%,48.235294%,73.333333%);fill-opacity:1;" d="M 149.800781 183.003906 L 7.117188 183.003906 L 23.347656 160.4375 L 166.035156 160.4375 L 149.800781 183.003906 "/>
<path style="fill:none;stroke-width:0.5;stroke-linecap:butt;stroke-linejoin:miter;stroke:rgb(100%,100%,100%);stroke-opacity:1;stroke-miterlimit:4;" d="M 32.983658 40.261719 L 1.567087 40.261719 L 5.140768 35.29625 L 36.5582 35.29625 Z M 32.983658 40.261719 " transform="matrix(4.541667,0,0,4.545455,0,0)"/>
<path style=" stroke:none;fill-rule:nonzero;fill:rgb(3.137255%,48.235294%,73.333333%);fill-opacity:1;" d="M 211.542969 101.269531 L 32.789062 101.269531 L 2.859375 129.539062 L 181.53125 129.539062 L 211.539062 101.269531 "/>
<path style="fill:none;stroke-width:0.5;stroke-linecap:butt;stroke-linejoin:miter;stroke:rgb(100%,100%,100%);stroke-opacity:1;stroke-miterlimit:4;" d="M 46.578268 22.277578 L 7.21961 22.277578 L 0.629587 28.497734 L 39.970183 28.497734 L 46.577408 22.277578 Z M 46.578268 22.277578 " transform="matrix(4.541667,0,0,4.545455,0,0)"/>
<path style=" stroke:none;fill-rule:nonzero;fill:rgb(3.137255%,48.235294%,73.333333%);fill-opacity:1;" d="M 177.875 101.398438 L 58.261719 101.398438 L 38.210938 120.308594 L 157.824219 120.308594 L 177.871094 101.398438 "/>
<path style="fill:none;stroke-width:0.5;stroke-linecap:butt;stroke-linejoin:miter;stroke:rgb(100%,100%,100%);stroke-opacity:1;stroke-miterlimit:4;" d="M 39.165138 22.306797 L 12.828268 22.306797 L 8.413417 26.467031 L 34.750287 26.467031 L 39.164278 22.306797 Z M 39.165138 22.306797 " transform="matrix(4.541667,0,0,4.545455,0,0)"/>
<path style=" stroke:none;fill-rule:nonzero;fill:rgb(3.137255%,48.235294%,73.333333%);fill-opacity:1;" d="M 34.816406 112.914062 L 158.003906 112.914062 L 158.003906 22.546875 L 34.816406 22.546875 Z M 34.816406 112.914062 "/>
<path style="fill:none;stroke-width:0.5;stroke-linecap:butt;stroke-linejoin:miter;stroke:rgb(100%,100%,100%);stroke-opacity:1;stroke-miterlimit:4;" d="M 7.665998 24.840234 L 34.789851 24.840234 L 34.789851 4.960312 L 7.665998 4.960312 Z M 7.665998 24.840234 " transform="matrix(4.541667,0,0,4.545455,0,0)"/>
<path style=" stroke:none;fill-rule:nonzero;fill:rgb(3.137255%,48.235294%,73.333333%);fill-opacity:1;" d="M 45.21875 42.359375 C 45.21875 33.28125 54.617188 31.925781 54.617188 31.925781 L 135.855469 31.925781 C 147.269531 31.925781 146.9375 42.695312 146.9375 42.695312 L 146.9375 93.433594 C 146.9375 99.800781 138.203125 102.480469 138.203125 102.480469 L 55.972656 102.480469 C 47.902344 102.480469 45.21875 94.09375 45.21875 94.09375 L 45.21875 42.363281 "/>
<path style="fill:none;stroke-width:0.5;stroke-linecap:butt;stroke-linejoin:miter;stroke:rgb(100%,100%,100%);stroke-opacity:1;stroke-miterlimit:4;" d="M 9.956422 9.319922 C 9.956422 7.321875 12.025803 7.023672 12.025803 7.023672 L 29.913131 7.023672 C 32.426319 7.023672 32.353211 9.392109 32.353211 9.392109 L 32.353211 20.555391 C 32.353211 21.956172 30.430046 22.547422 30.430046 22.547422 L 12.324255 22.547422 C 10.547305 22.547422 9.956422 20.700625 9.956422 20.700625 Z M 9.956422 9.319922 " transform="matrix(4.541667,0,0,4.545455,0,0)"/>
<path style=" stroke:none;fill-rule:nonzero;fill:rgb(3.137255%,48.235294%,73.333333%);fill-opacity:1;" d="M 178.652344 3.050781 L 55.460938 3.050781 L 34.816406 22.546875 L 158.003906 22.546875 L 178.652344 3.050781 "/>
<path style="fill:none;stroke-width:0.5;stroke-linecap:butt;stroke-linejoin:miter;stroke:rgb(100%,100%,100%);stroke-opacity:1;stroke-miterlimit:4;" d="M 39.336296 0.672031 L 12.211583 0.672031 L 7.665998 4.960312 L 34.789851 4.960312 Z M 39.336296 0.672031 " transform="matrix(4.541667,0,0,4.545455,0,0)"/>
<path style=" stroke:none;fill-rule:nonzero;fill:rgb(3.137255%,48.235294%,73.333333%);fill-opacity:1;" d="M 178.652344 93.691406 L 178.652344 3.007812 L 158.203125 22.363281 L 158.203125 113.046875 L 178.652344 93.6875 "/>
<path style="fill:none;stroke-width:0.5;stroke-linecap:butt;stroke-linejoin:miter;stroke:rgb(100%,100%,100%);stroke-opacity:1;stroke-miterlimit:4;" d="M 39.336296 20.612969 L 39.336296 0.662578 L 34.833716 4.919062 L 34.833716 24.871172 Z M 25.444094 10.407891 L 25.444094 19.391797 M 16.670298 19.391797 L 16.670298 9.099922 " transform="matrix(4.541667,0,0,4.545455,0,0)"/>
<path style=" stroke:none;fill-rule:nonzero;fill:rgb(3.137255%,48.235294%,73.333333%);fill-opacity:1;" d="M 75.710938 88.277344 C 84.132812 107.5 91.808594 86.019531 91.808594 86.019531 L 129.351562 86.019531 C 125.511719 96.003906 120.148438 96.761719 120.148438 96.761719 L 84.886719 96.761719 C 77.988281 96.003906 75.710938 88.277344 75.710938 88.277344 "/>
<path style="fill:none;stroke-width:0.5;stroke-linecap:butt;stroke-linejoin:miter;stroke:rgb(100%,100%,100%);stroke-opacity:1;stroke-miterlimit:4;" d="M 16.670298 19.421875 C 18.524656 23.649141 20.214736 18.922578 20.214736 18.922578 L 28.481078 18.922578 C 27.635608 21.120859 26.454702 21.286719 26.454702 21.286719 L 18.690654 21.286719 C 17.171732 21.120859 16.670298 19.421875 16.670298 19.421875 Z M 18.690654 14.169375 L 23.588876 14.169375 M 18.690654 15.184297 L 23.588876 15.184297 M 18.690654 16.530078 L 23.588876 16.530078 M 18.690654 17.542422 L 23.588876 17.542422 " transform="matrix(4.541667,0,0,4.545455,0,0)"/>
<path style=" stroke:none;fill-rule:nonzero;fill:rgb(3.137255%,48.235294%,73.333333%);fill-opacity:1;" d="M 115.03125 46 L 112.742188 39.09375 L 75.820312 39.09375 C 75.820312 39.09375 69.671875 38.324219 68.144531 49.0625 L 68.144531 57.496094 L 75.597656 57.496094 L 75.597656 46 "/>
<path style="fill:none;stroke-width:0.5;stroke-linecap:butt;stroke-linejoin:miter;stroke:rgb(100%,100%,100%);stroke-opacity:1;stroke-miterlimit:4;" d="M 25.327982 10.12 L 24.823968 8.599766 L 16.694381 8.599766 C 16.694381 8.599766 15.340596 8.429609 15.0043 10.792031 L 15.0043 12.648281 L 16.645356 12.648281 L 16.645356 10.118281 " transform="matrix(4.541667,0,0,4.545455,0,0)"/>
<path style=" stroke:none;fill-rule:nonzero;fill:rgb(3.137255%,48.235294%,73.333333%);fill-opacity:1;" d="M 74.957031 39.09375 C 74.957031 39.09375 68.832031 38.324219 67.304688 49.0625 L 67.304688 57.496094 "/>
<path style="fill:none;stroke-width:0.5;stroke-linecap:butt;stroke-linejoin:miter;stroke:rgb(100%,100%,100%);stroke-opacity:1;stroke-miterlimit:4;" d="M 16.5043 8.600625 C 16.5043 8.600625 15.155677 8.431328 14.819381 10.79375 L 14.819381 12.649141 M 18.690654 11.637656 L 23.588876 11.637656 M 18.690654 10.622734 L 23.588876 10.622734 M 16.806193 19.47 L 16.806193 9.846719 " transform="matrix(4.541667,0,0,4.545455,0,0)"/>
</g>
</svg>

<svg xmlns="http://www.w3.org/2000/svg" viewBox="0 0 47.5 43.75" height="43.75" width="47.5"><path d="M.63 35.881H39.97V28.5H.63v7.382z" fill="#087bbb"/><path d="M.63 35.88H39.97V28.5H.63v7.382zM27.92 32.678h9.921M27.92 32.322h9.921" fill="none" stroke="#fff" stroke-width=".5"/><path d="M46.578 28.88v-6.616l-6.612 6.265v7.352l6.612-7.001" fill="#087bbb"/><path d="M46.578 28.88v-6.617l-6.612 6.265v7.354l6.612-7.003z" fill="none" stroke="#fff" stroke-width=".5"/><path d="M32.984 41.897v-1.66l3.574-4.94v3.025l-3.574 3.575" fill="#087bbb"/><path d="M32.984 41.897v-1.66l3.574-4.941v3.027l-3.574 3.574z" fill="none" stroke="#fff" stroke-width=".5"/><path d="M1.465 41.897h31.519v-1.636H1.464v1.636z" fill="#087bbb"/><path d="M1.465 41.898h31.519v-1.636H1.464v1.636z" fill="none" stroke="#fff" stroke-width=".5"/><path d="M32.984 40.261H1.567l3.574-4.965h31.417l-3.574 4.965" fill="#087bbb"/><path d="M32.984 40.262H1.567l3.574-4.966h31.417l-3.574 4.966z" fill="none" stroke="#fff" stroke-width=".5"/><path d="M46.578 22.279H7.22L.63 28.499H39.97l6.607-6.22" fill="#087bbb"/><path d="M46.578 22.278H7.22L.63 28.498H39.97l6.607-6.22z" fill="none" stroke="#fff" stroke-width=".5"/><path d="M39.165 22.308H12.828l-4.415 4.16H34.75l4.414-4.16" fill="#087bbb"/><path d="M39.165 22.307H12.828l-4.415 4.16H34.75l4.414-4.16z" fill="none" stroke="#fff" stroke-width=".5"/><path d="M7.666 24.841H34.79V4.96H7.666V24.84z" fill="#087bbb"/><path d="M7.666 24.84H34.79V4.96H7.666V24.84z" fill="none" stroke="#fff" stroke-width=".5"/><path d="M9.956 9.319c0-1.997 2.07-2.295 2.07-2.295h17.887c2.513 0 2.44 2.369 2.44 2.369v11.162c0 1.401-1.923 1.991-1.923 1.991H12.324c-1.777 0-2.368-1.845-2.368-1.845V9.32" fill="#087bbb"/><path d="M9.956 9.32c0-1.998 2.07-2.296 2.07-2.296h17.887c2.513 0 2.44 2.368 2.44 2.368v11.163c0 1.401-1.923 1.992-1.923 1.992H12.324c-1.777 0-2.368-1.846-2.368-1.846V9.32z" fill="none" stroke="#fff" stroke-width=".5"/><path d="M39.336.671H12.212L7.666 4.96H34.79L39.336.671" fill="#087bbb"/><path d="M39.336.672H12.212L7.666 4.96H34.79L39.336.672z" fill="none" stroke="#fff" stroke-width=".5"/><path d="M39.336 20.612V.662L34.834 4.92V24.87l4.502-4.259" fill="#087bbb"/><path d="M39.336 20.613V.663l-4.502 4.256v19.952l4.502-4.258zM25.444 10.408v8.984M16.67 19.392V9.1" fill="none" stroke="#fff" stroke-width=".5"/><path d="M16.67 19.421c1.855 4.229 3.545-.497 3.545-.497h8.266c-.845 2.197-2.026 2.364-2.026 2.364h-7.764c-1.519-.167-2.021-1.867-2.021-1.867" fill="#087bbb"/><path d="M16.67 19.422c1.855 4.227 3.545-.499 3.545-.499h8.266c-.845 2.198-2.026 2.364-2.026 2.364h-7.764c-1.519-.166-2.021-1.865-2.021-1.865zM18.691 14.169h4.898M18.691 15.184h4.898M18.691 16.53h4.898M18.691 17.542h4.898" fill="none" stroke="#fff" stroke-width=".5"/><path d="M25.328 10.12l-.504-1.519h-8.13s-1.353-.17-1.69 2.193v1.855h1.641V10.12" fill="#087bbb"/><path d="M25.328 10.12L24.824 8.6h-8.13s-1.353-.17-1.69 2.192v1.856h1.641v-2.53" fill="none" stroke="#fff" stroke-width=".5"/><path d="M16.504 8.601s-1.348-.17-1.685 2.193v1.855" fill="#087bbb"/><path d="M16.504 8.601s-1.348-.17-1.685 2.193v1.855M18.691 11.638h4.898M18.691 10.623h4.898M16.806 19.47V9.847" fill="none" stroke="#fff" stroke-width=".5"/></svg>
